X: 32181
T: Peter's 60th
R: jig
M: 6/8
K: Amixolydian
|:Acd ~e3|fed ~e3|Acd ~e3|fed BAG|
Acd ~e3|fed ~e3|~g3 fed|BAG A3:|
agf efg|gga gef|ffg fed|~e3 dcA|
agf efg|gga gef|ffg fed|edc A3|
agf efg|gga gef|ffg fed|~e3 dcA|
Acd ~e3|fed ~e3|~g3 fed|BAG A3||

